svgs/solid/calendar-pen.svg

<svg xmlns="http://www.w3.org/2000/svg" viewBox="0 0 448 512"><!--! Font Awesome Pro 6.5.1 by @fontawesome - https://fontawesome.com License - https://fontawesome.com/license (Commercial License) Copyright 2023 Fonticons, Inc. --><path d="M128 0c17.7 0 32 14.3 32 32V64H288V32c0-17.7 14.3-32 32-32s32 14.3 32 32V64h48c26.5 0 48 21.5 48 48v48H0V112C0 85.5 21.5 64 48 64H96V32c0-17.7 14.3-32 32-32zM0 192H448V464c0 26.5-21.5 48-48 48H48c-26.5 0-48-21.5-48-48V192zm308.8 75c-14.7-14.7-38.6-14.7-53.3 0L240.6 282l53.3 53.3 14.9-14.9c14.7-14.7 14.7-38.6 0-53.3zM146.1 376.5c-4.1 4.1-7 9.2-8.4 14.9L128.5 428c-1.4 5.5 .2 11.2 4.2 15.2s9.7 5.6 15.2 4.2l36.6-9.2c5.6-1.4 10.8-4.3 14.9-8.4l71.9-71.9L218 304.6l-71.9 71.9z"/></svg>

<svg xmlns="http://www.w3.org/2000/svg" viewBox="0 0 448 512"><!--! Font Awesome Pro 6.1.1 by @fontawesome - https://fontawesome.com License - https://fontawesome.com/license (Commercial License) Copyright 2022 Fonticons, Inc. --><path d="M160 32V64H288V32C288 14.33 302.3 0 320 0C337.7 0 352 14.33 352 32V64H400C426.5 64 448 85.49 448 112V160H0V112C0 85.49 21.49 64 48 64H96V32C96 14.33 110.3 0 128 0C145.7 0 160 14.33 160 32zM0 192H448V464C448 490.5 426.5 512 400 512H48C21.49 512 0 490.5 0 464V192zM308.8 267C294.1 252.3 270.2 252.3 255.5 267L240.6 281.1L293.9 335.3L308.8 320.4C323.5 305.6 323.5 281.8 308.8 267V267zM137.6 391.4L128.5 428C127.1 433.5 128.7 439.3 132.7 443.2C136.7 447.2 142.4 448.8 147.9 447.4L184.5 438.3C190.1 436.9 195.3 433.1 199.4 429.9L271.3 357.9L217.1 304.6L146.1 376.5C141.1 380.6 139 385.8 137.6 391.4H137.6z"/></svg>
